X: 181
T: Horses In The Canebrake
B: canberra pickers and fiddlers
B: old time tunes update
B: tunes
M:C|
L:1/8
Q: 1/4=100
K:G
V:1 
[G,G](A|Bd)ed e3d|(Bd)gd (Bd)gd|(Bd)e2 e2d2|BGAF G2(A2|
B)def e3d|(Bd)gd (Bd)gd|(Bd)ef e2d2|BGAB G2 G2||
[G,2G2] ga gedg|ega2 a2b2|aged edBd|edgd  e2[G,2G2]-|
[G,2D2]ga gedg|ega2 a2b2|aged edBd|edgd  e2|| 
% abcbook-tune_id 67a7d9ec3678109a03960c4a
% abcbook-tune_composer_id 
% abcbook-link-0 https://www.youtube.com/watch?v=5RzQxx0X-uM
% abcbook-link-title-0 Horses in the Canebrake
% abcbook-boost 0
% abcbook-difficulty 0
% abcbook-tags old time tunes
% abcbook-tablature 
% abcbook-transpose 
% abcbook-tuning GDAD
% abcbook-lastupdated 1739166536669
% abcbook-src-url 
% abcbook-soundfonts 
% abcbook-repeats 1


